src/assets/icons/multicolor/upload.multicolor.svg

<svg width="16" height="16" fill="none">
  <path fill="#093971" fill-rule="evenodd" d="M14.6834 1.33432h-2.2693c1.5776 1.04324 2.7343 2.6115 3.2648 4.42636s.4005 3.75891-.3669 5.48702c-.7674 1.7282-2.1226 3.1286-3.8251 3.9527-1.7024.8241-3.64185 1.0186-5.47412.5489-1.83227-.4696-3.43879-1.5731-4.53434-3.1144C.382892 11.0935-.130871 9.21402.0284312 7.32999.187734 5.44596 1.00978 3.67929 2.3486 2.34361 3.68741 1.00793 5.45641.189648 7.34155.0340216V1.33432l.08677.02935c-1.58927.13888-3.07635.84183-4.19205 1.98166-1.1157 1.13982-1.78633 2.64121-1.89055 4.23245-.10422 1.59125.36492 3.16722 1.32242 4.44272.95751 1.2755 2.34018 2.1662 3.89777 2.511 1.5576.3449 3.18715.1209 4.59389-.6312 1.4067-.7521 2.4977-1.9827 3.0754-3.4692.5776-1.48642.6039-3.13046.074-4.63457-.5299-1.50411-1.581-2.76893-2.963-3.56556V4.6701c0 .17694-.0703.34664-.1954.47176-.1252.12511-.295.1954-.472.1954s-.3468-.07029-.472-.1954c-.1252-.12512-.1955-.29482-.1955-.47176V.667158c0-.176942.0703-.346636.1955-.471753C10.332.0702891 10.5018 0 10.6788 0h4.0046c.1771 0 .3469.0702891.472.195405.1252.125117.1955.294811.1955.471753 0 .176941-.0703.346632-.1955.471752-.1251.12512-.2949.19541-.472.19541z" clip-rule="evenodd"/>
</svg>

<svg width="16" height="16" viewBox="0 0 16 16" fill="none" xmlns="http://www.w3.org/2000/svg">
<path fill-rule="evenodd" clip-rule="evenodd" d="M14.6834 1.33432H12.4141C13.9917 2.37756 15.1484 3.94582 15.6789 5.76068C16.2094 7.57554 16.0794 9.51959 15.312 11.2477C14.5446 12.9759 13.1894 14.3763 11.4869 15.2004C9.7845 16.0245 7.84505 16.219 6.01278 15.7493C4.18051 15.2797 2.57399 14.1762 1.47844 12.6349C0.382892 11.0935 -0.130871 9.21402 0.0284312 7.32999C0.187734 5.44596 1.00978 3.67929 2.3486 2.34361C3.68741 1.00793 5.45641 0.189648 7.34155 0.0340216V1.33432L7.42832 1.36367C5.83905 1.50255 4.35197 2.2055 3.23627 3.34533C2.12057 4.48515 1.44994 5.98654 1.34572 7.57778C1.2415 9.16903 1.71064 10.745 2.66814 12.0205C3.62565 13.296 5.00832 14.1867 6.56591 14.5315C8.12351 14.8764 9.75306 14.6524 11.1598 13.9003C12.5665 13.1482 13.6575 11.9176 14.2352 10.4311C14.8128 8.94468 14.8391 7.30064 14.3092 5.79653C13.7793 4.29242 12.7282 3.0276 11.3462 2.23097V4.6701C11.3462 4.84704 11.2759 5.01674 11.1508 5.14186C11.0256 5.26697 10.8558 5.33726 10.6788 5.33726C10.5018 5.33726 10.332 5.26697 10.2068 5.14186C10.0816 5.01674 10.0113 4.84704 10.0113 4.6701V0.667158C10.0113 0.490216 10.0816 0.320522 10.2068 0.195405C10.332 0.0702891 10.5018 0 10.6788 0H14.6834C14.8605 0 15.0303 0.0702891 15.1554 0.195405C15.2806 0.320522 15.3509 0.490216 15.3509 0.667158C15.3509 0.844099 15.2806 1.01379 15.1554 1.13891C15.0303 1.26403 14.8605 1.33432 14.6834 1.33432Z" fill="#093971"/>
</svg>
